X: 30916
T: Over The Hills To Runbush
R: jig
M: 6/8
K: Amajor
z|AcB Ace|agf ecA|EGE EGB|dcB dcB|
AcB Ace|agf ecA|EGB dcB|cAG A2:|
A|efe ece|fef fga|ecA AcA|BGE E2
e|ecA Ace|dcd fga|edc dcB|cAG A2:|

